X: 1
T: Derry, The
M: 4/4
L: 1/8
R: reel
K: Amaj
c2cA BccB | ABcA BF~F2 | ABce ~f3g | afec BdcB |
c2cA BccB | ABcA BF~F2 | ABce fefg |1 afec A2AB :|2 afec A2ag ||
|: fd~d2 fdad | geBe geBe | fd~d2 fg (3agf | gfeg f2fg |
afec A2cA | (3BBBcA BF~F2 | ABce ~f3e |1 fege a2ag :|2 fege a2AB ||
